lib/brands/icons/google-voice.svg

<svg xmlns="http://www.w3.org/2000/svg" fill="none" aria-hidden="true" viewBox="0 0 48 48"><g id="google-voice-Icon"><g id="Group"><g id="Vector"><path fill="#00832D" d="M24.9608 13.1989V21.8374C24.9608 22.3702 25.3927 22.8021 25.9254 22.8021H34.564C34.564 20.1529 33.9737 17.2734 32.2316 15.5313C30.4895 13.7892 27.61 13.1989 24.9608 13.1989Z"/><path fill="#00832D" d="M34.3769 41.8214C30.3455 42.4837 25.4647 41.2887 20.7855 38.4955L22.3548 34.9969L25.911 33.3556L31.4829 36.5375L34.3769 41.8214Z"/><path fill="#00832D" d="M6.4166 13.8611C5.75431 17.8925 6.93491 22.7733 9.74246 27.4525L13.3419 25.768L14.8824 22.3126L11.8589 17.3742L6.4166 13.8611Z"/></g><g id="Vector_2"><path fill="#34A853" d="M26.4005 6C25.6086 6 24.9607 6.64789 24.9607 7.43977V13.1988C30.259 13.1988 34.5639 17.5037 34.5639 22.8021H40.323C41.1149 22.8021 41.7628 22.1542 41.7628 21.3623C41.7628 12.8821 34.8807 6 26.4005 6Z"/><path fill="#34A853" d="M40.395 38.5099C41.1581 37.7756 41.1869 36.5806 40.467 35.8176L33.5273 28.4172C32.7642 27.6973 31.5836 27.7117 30.8493 28.446L25.9253 33.3556L34.3768 41.807C36.666 41.4758 38.3793 40.4968 39.9343 38.9418L40.395 38.5099Z"/><path fill="#34A853" d="M9.75676 27.4525C11.0238 29.5546 12.7083 31.671 14.6232 33.5859C16.5381 35.5008 18.6977 37.2141 20.7998 38.4811L25.9397 33.3556L14.8823 22.3125"/><path fill="#34A853" d="M18.5825 18.7275L19.3744 17.9645C20.3102 17.0286 20.3102 15.4881 19.3744 14.5522L12.8523 8.03007C11.9164 7.09422 10.3759 7.09422 9.44001 8.03007L9.20965 8.18844C7.6979 9.7002 6.79084 11.6583 6.4165 13.8611L14.8823 22.3125L18.5825 18.7275Z"/></g></g></g></svg>

<svg xmlns="http://www.w3.org/2000/svg" fill="none" aria-hidden="true" viewBox="0 0 48 48"><path fill="#00832D" d="M24.96 13.199v8.638c0 .533.433.965.965.965h8.64c0-2.65-.591-5.529-2.333-7.27-1.742-1.743-4.622-2.333-7.271-2.333Zm9.417 28.622c-4.031.663-8.912-.532-13.591-3.325l1.569-3.5 3.556-1.64 5.572 3.181 2.894 5.284Zm-27.96-27.96c-.663 4.031.518 8.912 3.326 13.591l3.599-1.684 1.54-3.455-3.023-4.939-5.442-3.513Z"/><path fill="#34A853" d="M26.4 6c-.791 0-1.44.648-1.44 1.44v5.759c5.3 0 9.604 4.305 9.604 9.603h5.76c.791 0 1.439-.648 1.439-1.44C41.763 12.882 34.881 6 26.401 6Zm13.995 32.51c.763-.734.792-1.93.072-2.692l-6.94-7.4a1.916 1.916 0 0 0-2.677.028l-4.924 4.91 8.451 8.451c2.29-.331 4.003-1.31 5.557-2.865l.461-.432Z"/><path fill="#34A853" d="M9.757 27.453c1.267 2.102 2.952 4.218 4.866 6.133 1.915 1.915 4.075 3.628 6.177 4.895l5.14-5.125-11.057-11.044"/><path fill="#34A853" d="m18.583 18.727.792-.762a2.425 2.425 0 0 0 0-3.413L12.852 8.03a2.425 2.425 0 0 0-3.412 0l-.23.158c-1.512 1.512-2.42 3.47-2.793 5.673l8.466 8.451 3.7-3.585Z"/></svg>
